IMB-X-Files/The-Ambassadors-Assets/65f43207d485843526416216_chili.svg

<svg fill="none" height="56" viewBox="0 0 256 56" width="256" xmlns="http://www.w3.org/2000/svg"><path clip-rule="evenodd" d="m48.1755 41.574c2.5352 1.7805 5.2189 3.3621 8.0327 4.717-9.185 4.2002-17.5533 4.6075-20.2795 4.6181l-.2763-.0003c-.422-.0025-.6493-.0142-.6524-.0142 4.8846-2.3957 9.3272-5.5552 13.1755-9.3206zm10.0423-13.8184c.9026.6245 1.8312 1.2137 2.7877 1.7638-3.4099 6.4956-7.1523 10.4153-7.1523 10.4153 3.5752-2.9439 6.4391-6.3339 8.6827-9.5808 3.2149 1.6652 6.6825 2.9086 10.332 3.6502-3.6217 4.0349-7.8748 7.4881-12.6053 10.1997-3.3914-1.4199-6.6044-3.1818-9.5984-5.2411 2.9865-3.3658 5.5347-7.1313 7.5536-11.2071zm38.8012-3.9445c2.5503 0 4.475 1.0011 5.924 2.2791l-2.118 3.4289c-.8645-.6381-1.8816-1.4046-3.5675-1.4046-2.0324 0-3.2414 1.4687-3.2433 3.1502 0 1.6814 1.2109 3.1519 3.2433 3.1519 1.6859 0 2.703-.7664 3.5675-1.4064l2.118 3.4289c-1.449 1.278-3.3737 2.2791-5.924 2.2791-4.5175 0-7.9116-3.2143-7.9116-7.4535 0-4.2375 3.3941-7.4536 7.9116-7.4536zm12.341 0v5.2603h5.259v-5.2603h4.82v14.9071h-4.82v-5.4812h-5.259v5.4812h-4.821v-14.9071zm17.529 0v14.9071h-4.789v-14.9071zm7.502 0v10.7415h6.866v4.1656h-11.707v-14.9071zm13.252 0v14.9071h-4.79v-14.9071zm15.238 0c2.982 0 5.515 1.7987 5.515 5.6775 0 3.5087-2.533 5.5906-5.515 5.5906h-3.069v3.639h-4.719v-14.9071zm11.901 0v14.9071h-4.789v-14.9071zm10.45 0c2.983 0 5.514 1.7987 5.514 5.6775 0 3.5087-2.531 5.5906-5.514 5.5906h-3.069v3.639h-4.72v-14.9071zm19.35 0v4.1656h-7.666v1.3156h6.076v3.8353h-6.076v1.425h7.666v4.1656h-12.24v-14.9071zm10.529 0c2.963 0 5.181 1.7119 5.181 5.0867 0 1.8722-1.025 3.3729-2.625 4.1412l-.148.0678 3.559 4.5148v1.0966h-4.69l-3.687-5.1282h-.768v5.1282h-4.691v-14.9071zm-152.3336-10.1266c7.104.0279 13.7122 2.1559 19.2394 5.7987-1.7161 4.1446-3.9634 8.0104-6.6564 11.5175-3.8947-.5892-7.587-1.7935-10.9747-3.5108 3.3639-5.562 4.8134-10.0973 4.8505-10.2142l.0007-.0023-3.5306-.8382c-.7262 3.6799-1.8926 7.0513-3.2168 10.0232-.9788-.5725-1.9297-1.1877-2.8472-1.8437 1.4319-3.4681 2.4943-7.1257 3.1351-10.9302zm99.3536 14.2922h-2.317v2.9369h2.317c.815 0 1.394-.6361 1.396-1.4685 0-.8116-.581-1.4684-1.396-1.4684zm22.351 0h-2.319v2.9369h2.319c.815 0 1.394-.6361 1.394-1.4685 0-.8116-.579-1.4684-1.394-1.4684zm29.839 0h-2.388v2.2801h2.388c.81 0 1.152-.5927 1.15-1.1401 0-.5266-.34-1.14-1.15-1.14zm-136.7969-27.9767s2.8583 5.82843-.3956 11.9654c0 0 2.2365 1.4616 2.6782 2.4053l.0334.0796-.338 1.0389c-3.2269-1.6297-6.7217-2.8054-10.4008-3.4453l-.481-.0804.2768-1.0687s2.3661-.394 4.1417 0c0 0 2.543-1.92396 2.6581-8.28506l.0034-.25681z" fill="#fff" fill-rule="evenodd"/></svg>

<svg width="256" height="56" viewBox="0 0 256 56" fill="none" xmlns="http://www.w3.org/2000/svg">
    <path fill-rule="evenodd" clip-rule="evenodd"
        d="M48.1755 41.574C50.7107 43.3545 53.3944 44.9361 56.2082 46.291C47.0232 50.4912 38.6549 50.8985 35.9287 50.9091L35.6524 50.9088C35.2304 50.9063 35.0031 50.8946 35 50.8946C39.8846 48.4989 44.3272 45.3394 48.1755 41.574ZM58.2178 27.7556C59.1204 28.3801 60.049 28.9693 61.0055 29.5194C57.5956 36.015 53.8532 39.9347 53.8532 39.9347C57.4284 36.9908 60.2923 33.6008 62.5359 30.3539C65.7508 32.0191 69.2184 33.2625 72.8679 34.0041C69.2462 38.039 64.9931 41.4922 60.2626 44.2038C56.8712 42.7839 53.6582 41.022 50.6642 38.9627C53.6507 35.5969 56.1989 31.8314 58.2178 27.7556ZM97.019 23.8111C99.5693 23.8111 101.494 24.8122 102.943 26.0902L100.825 29.5191C99.9605 28.881 98.9434 28.1145 97.2575 28.1145C95.2251 28.1145 94.0161 29.5832 94.0142 31.2647C94.0142 32.9461 95.2251 34.4166 97.2575 34.4166C98.9434 34.4166 99.9605 33.6502 100.825 33.0102L102.943 36.4391C101.494 37.7171 99.5693 38.7182 97.019 38.7182C92.5015 38.7182 89.1074 35.5039 89.1074 31.2647C89.1074 27.0272 92.5015 23.8111 97.019 23.8111ZM109.36 23.8111V29.0714H114.619V23.8111H119.439V38.7182H114.619V33.237H109.36V38.7182H104.539V23.8111H109.36ZM126.889 23.8111V38.7182H122.1V23.8111H126.889ZM134.391 23.8111V34.5526H141.257V38.7182H129.55V23.8111H134.391ZM147.643 23.8111V38.7182H142.853V23.8111H147.643ZM162.881 23.8111C165.863 23.8111 168.396 25.6098 168.396 29.4886C168.396 32.9973 165.863 35.0792 162.881 35.0792H159.812V38.7182H155.093V23.8111H162.881ZM174.782 23.8111V38.7182H169.993V23.8111H174.782ZM185.232 23.8111C188.215 23.8111 190.746 25.6098 190.746 29.4886C190.746 32.9973 188.215 35.0792 185.232 35.0792H182.163V38.7182H177.443V23.8111H185.232ZM204.582 23.8111V27.9767H196.916V29.2923H202.992V33.1276H196.916V34.5526H204.582V38.7182H192.342V23.8111H204.582ZM215.111 23.8111C218.074 23.8111 220.292 25.523 220.292 28.8978C220.292 30.77 219.267 32.2707 217.667 33.039L217.519 33.1068L221.078 37.6216V38.7182H216.388L212.701 33.59H211.933V38.7182H207.242V23.8111H215.111ZM62.7774 13.6845C69.8814 13.7124 76.4896 15.8404 82.0168 19.4832C80.3007 23.6278 78.0534 27.4936 75.3604 31.0007C71.4657 30.4115 67.7734 29.2072 64.3857 27.4899C67.7496 21.9279 69.1991 17.3926 69.2362 17.2757L69.2369 17.2734L65.7063 16.4352C64.9801 20.1151 63.8137 23.4865 62.4895 26.4584C61.5107 25.8859 60.5598 25.2707 59.6423 24.6147C61.0742 21.1466 62.1366 17.489 62.7774 13.6845ZM162.131 27.9767H159.814V30.9136H162.131C162.946 30.9136 163.525 30.2775 163.527 29.4451C163.527 28.6335 162.946 27.9767 162.131 27.9767ZM184.482 27.9767H182.163V30.9136H184.482C185.297 30.9136 185.876 30.2775 185.876 29.4451C185.876 28.6335 185.297 27.9767 184.482 27.9767ZM214.321 27.9767H211.933V30.2568H214.321C215.131 30.2568 215.473 29.6641 215.471 29.1167C215.471 28.5901 215.131 27.9767 214.321 27.9767ZM77.5241 0C77.5241 0 80.3824 5.82843 77.1285 11.9654C77.1285 11.9654 79.365 13.427 79.8067 14.3707L79.8401 14.4503L79.5021 15.4892C76.2752 13.8595 72.7804 12.6838 69.1013 12.0439L68.6203 11.9635L68.8971 10.8948C68.8971 10.8948 71.2632 10.5008 73.0388 10.8948C73.0388 10.8948 75.5818 8.97084 75.6969 2.60974L75.7003 2.35293L77.5241 0Z"
        fill="white" />
</svg>
